X: 9210
T: Dan Breen's
R: reel
M: 4/4
K: Amajor
|:f2 ec ~B3 A|FB (3BBB Bcde|f2 ed ~B3 A|EA (3AAA ABce:|
|:~f3 f fece|fB (3BBB fece|~f3 f fece|(3ffe ge a z e2:|

